X:2884
L:1/8
M:6/8
K:D
 A | dfA d2 A | dfA d2 f | a2 f d2 f | fee e2 a/4g/4f/4e/4 | dfA d2 A | dfA d2 e | fdf ece | 
 dfa/4g/4f/4e/4 d2 :: e | fdf gfg | a2 f d2 f/a/ | agg{a} gff |{g} fee eag | fdf gfg | a3 f2 d | 
 efg fge | edd d2 :|

